src/pos-icons/microsoft-internet-explorer.svg

<svg height="24" viewBox="0 0 24 24" width="24" xmlns="http://www.w3.org/2000/svg"><path d="m13 3 1 .06c2.8-1.27 5.23-1.42 6.5-.14 1 1.01 1.08 2.75.42 4.8.69 1.28 1.08 2.73 1.08 4.28l-.05 1h-12.87c.37 2.28 1.98 4 3.92 4 1.31 0 2.47-.79 3.2-2h5.3c-1.25 3.5-4.58 6-8.5 6-1.28 0-2.5-.27-3.59-.75-2.91 1.43-5.52 1.65-6.84.31-1.57-1.6-.89-4.99 1.43-8.56.93-1.46 2.14-2.94 3.57-4.35l.81-.77c-1.17.69-2.67 1.74-4.19 3.29.84-4.09 4.47-7.17 8.81-7.17m0 4c-1.79 0-3.31 1.47-3.82 3.5h7.64c-.51-2.03-2.03-3.5-3.82-3.5m7.06-2.94c-.66-.67-1.84-.71-3.32-.25 1.48.69 2.76 1.75 3.67 3.08.32-1.24.23-2.24-.35-2.83m-16.17 15.94c.83.84 2.51.69 4.55-.24-1.85-1.09-3.27-2.82-3.97-4.88-1.2 2.27-1.47 4.19-.58 5.12z"/></svg>

<?xml version="1.0" encoding="UTF-8"?><!DOCTYPE svg PUBLIC "-//W3C//DTD SVG 1.1//EN" "http://www.w3.org/Graphics/SVG/1.1/DTD/svg11.dtd"><svg xmlns="http://www.w3.org/2000/svg" xmlns:xlink="http://www.w3.org/1999/xlink" version="1.1" id="mdi-microsoft-internet-explorer" width="24" height="24" viewBox="0 0 24 24"><path d="M13,3L14,3.06C16.8,1.79 19.23,1.64 20.5,2.92C21.5,3.93 21.58,5.67 20.92,7.72C21.61,9 22,10.45 22,12L21.95,13H9.08C9.45,15.28 11.06,17 13,17C14.31,17 15.47,16.21 16.2,15H21.5C20.25,18.5 16.92,21 13,21C11.72,21 10.5,20.73 9.41,20.25C6.5,21.68 3.89,21.9 2.57,20.56C1,18.96 1.68,15.57 4,12C4.93,10.54 6.14,9.06 7.57,7.65L8.38,6.88C7.21,7.57 5.71,8.62 4.19,10.17C5.03,6.08 8.66,3 13,3M13,7C11.21,7 9.69,8.47 9.18,10.5H16.82C16.31,8.47 14.79,7 13,7M20.06,4.06C19.4,3.39 18.22,3.35 16.74,3.81C18.22,4.5 19.5,5.56 20.41,6.89C20.73,5.65 20.64,4.65 20.06,4.06M3.89,20C4.72,20.84 6.4,20.69 8.44,19.76C6.59,18.67 5.17,16.94 4.47,14.88C3.27,17.15 3,19.07 3.89,20Z" /></svg>
